X: 29114
T: Nellie Garvey's
R: jig
M: 6/8
K: Ddorian
|:~A2G Adc|AGE D2A|~A2G Add|edc d2c|
~A2G Adc|AGE D2A|dAA cAA|dcA G3:|
~A3 dcd|edc d2c|A2d dcd|egg gec|
~A3 dcd|edc d2d|dcA GAc|dcA G3|
Add dcd|edc d2c|~A2d dcd|egg geg|
a3 g2a|edc dAc|dcA GAc|dcA G3||

